Obsidian-SemiLight/actions/24s/draw-spiral.svg

<svg viewBox="0 0 24 24" xmlns="http://www.w3.org/2000/svg"><path d="m12.037109 4.0019531c-4.0983961.095213-7.5048746 3.5814562-7.4042965 7.7226559.0192682.793371.1732816 1.557646.4316406 2.275391l1.1230469-.367188c-.2215213-.601588-.3561582-1.242259-.3769531-1.908203-.1093884-3.5030551 2.7650278-6.4586921 6.2265621-6.5605465 3.649645-.1073939 6.724685 2.9177133 6.824219 6.5605465.104589 3.828113-3.038229 7.052099-6.824219 7.150391-3.1727045.082379-5.9406184-2.007908-6.9726559-4.875l-1.0644531.347656c1.171463 3.388832 4.4591787 5.725559 8.037109 5.650391 4.400439-.0925 8.058076-3.829459 7.960938-8.273438-.09336-4.2710686-3.68771-7.8219216-7.960938-7.7226559zm-5.849609 9.6308589c.8795094 2.3885 3.1980552 4.125188 5.849609 4.035157 3.122758-.106021 5.710966-2.779557 5.595703-5.94336-.107878-2.9612631-2.622066-5.4161928-5.595703-5.2968746-2.7665685.1110089-5.0582666 2.489578-4.9355465 5.2968746.023055.527344.151568 1.026941.3339844 1.501953l1.3964843-.455078c-.1387263-.329641-.2387978-.678683-.265625-1.046875-.1473256-2.0220081 1.4897558-3.7520423 3.4707028-3.8769528 2.219057-.1399214 4.11028 1.677492 4.230469 3.8769528.13274 2.429057-1.842094 4.494199-4.230469 4.611329-2.0781672.101918-3.8870195-1.248703-4.6015621-3.109376zm2.6445312-.861328c.5285789 1.256009 1.7828658 2.152889 3.2050778 2.027344 1.531309-.135182 2.793056-1.500759 2.621094-3.074219-.140889-1.289111-1.301524-2.3562482-2.621094-2.162109-1.010114.1486156-1.857236 1.10857-1.626953 2.162109.03568.163223.106574.321844.199219.466797l1.427734-.466797c.694606 0 .433378.820433 0 1.011719-.55777.246187-1.124078-.06982-1.427734-.544922z" fill="#4d4d4d"/></svg>

<svg xmlns="http://www.w3.org/2000/svg" viewBox="0 0 24 24">
  <defs id="defs3051">
    <style type="text/css" id="current-color-scheme">
      .ColorScheme-Text {
        color:#4d4d4d;
      }
      </style>
  </defs>
 <path style="fill:currentColor;fill-opacity:1;stroke:none" 
     d="M 12.037109 4.0019531 C 7.9387129 4.0971661 4.5322344 7.5834093 4.6328125 11.724609 C 4.6520807 12.51798 4.8060941 13.282255 5.0644531 14 L 6.1875 13.632812 C 5.9659787 13.031224 5.8313418 12.390553 5.8105469 11.724609 C 5.7011585 8.2215539 8.5755747 5.2659169 12.037109 5.1640625 C 15.686754 5.0566686 18.761794 8.0817758 18.861328 11.724609 C 18.965917 15.552722 15.823099 18.776708 12.037109 18.875 C 8.8644045 18.957379 6.0964906 16.867092 5.0644531 14 L 4 14.347656 C 5.171463 17.736488 8.4591787 20.073215 12.037109 19.998047 C 16.437548 19.905547 20.095185 16.168588 19.998047 11.724609 C 19.904687 7.4535404 16.310337 3.9026874 12.037109 4.0019531 z M 6.1875 13.632812 C 7.0670094 16.021312 9.3855552 17.758 12.037109 17.667969 C 15.159867 17.561948 17.748075 14.888412 17.632812 11.724609 C 17.524934 8.7633459 15.010746 6.3084162 12.037109 6.4277344 C 9.2705405 6.5387433 6.9788424 8.9173124 7.1015625 11.724609 C 7.1246175 12.251953 7.2531305 12.75155 7.4355469 13.226562 L 8.8320312 12.771484 C 8.6933049 12.441843 8.5932334 12.092801 8.5664062 11.724609 C 8.4190806 9.7026009 10.056162 7.9725667 12.037109 7.8476562 C 14.256166 7.7077348 16.147389 9.5251482 16.267578 11.724609 C 16.400318 14.153666 14.425484 16.218808 12.037109 16.335938 C 9.9589418 16.437856 8.1500895 15.087235 7.4355469 13.226562 L 6.1875 13.632812 z M 8.8320312 12.771484 C 9.3606101 14.027493 10.614897 14.924373 12.037109 14.798828 C 13.568418 14.663646 14.830165 13.298069 14.658203 11.724609 C 14.517314 10.435498 13.356679 9.3683608 12.037109 9.5625 C 11.026995 9.7111156 10.179873 10.67107 10.410156 11.724609 C 10.445836 11.887832 10.51673 12.046453 10.609375 12.191406 L 12.037109 11.724609 C 12.731715 11.724609 12.470487 12.545042 12.037109 12.736328 C 11.479339 12.982515 10.913031 12.666508 10.609375 12.191406 L 8.8320312 12.771484 z "
     class="ColorScheme-Text"
     />
</svg>
